svg/gcp.svg

<svg viewBox="0 0 20 20" xmlns="http://www.w3.org/2000/svg">
<rect width="100%" height="100%" fill="white"/>
<path d="M12.1524 6.79575H12.6404L14.0312 5.40496L14.0995 4.81448C13.3028 4.11126 12.34 3.62275 11.3019 3.39511C10.2639 3.16747 9.18499 3.20821 8.16709 3.51348C7.14919 3.81875 6.22592 4.37848 5.48448 5.13979C4.74305 5.90109 4.20793 6.83885 3.92969 7.86446C4.08463 7.80095 4.25626 7.79066 4.41768 7.83518L7.19927 7.37647C7.19927 7.37647 7.34079 7.14223 7.41399 7.15687C8.00999 6.5023 8.83365 6.1003 9.71636 6.03317C10.5991 5.96604 11.4741 6.23885 12.1622 6.79575H12.1524Z" fill="#EA4335"/>
<path d="M16.0129 7.86444C15.6932 6.68721 15.0368 5.6289 14.1243 4.81934L12.1723 6.77132C12.5792 7.10373 12.9052 7.52418 13.1258 8.00095C13.3464 8.47772 13.4559 8.99837 13.446 9.52363V9.8701C13.6742 9.8701 13.9001 9.91504 14.1108 10.0023C14.3216 10.0897 14.5131 10.2176 14.6745 10.3789C14.8358 10.5403 14.9637 10.7318 15.051 10.9425C15.1383 11.1533 15.1833 11.3792 15.1833 11.6074C15.1833 11.8355 15.1383 12.0614 15.051 12.2722C14.9637 12.483 14.8358 12.6745 14.6745 12.8358C14.5131 12.9971 14.3216 13.1251 14.1108 13.2124C13.9001 13.2997 13.6742 13.3446 13.446 13.3446H9.97148L9.625 13.696V15.7797L9.97148 16.1262H13.446C14.4163 16.1338 15.3632 15.8288 16.1467 15.2565C16.9302 14.6842 17.5087 13.8748 17.7966 12.9483C18.0845 12.0217 18.0664 11.027 17.7452 10.1115C17.424 9.19589 16.8166 8.40804 16.0129 7.86444Z" fill="#4285F4"/>
<path d="M6.49157 16.1067H9.96611V13.3251H6.49157C6.24403 13.3251 5.99939 13.2718 5.77422 13.1689L5.28622 13.3202L3.88567 14.711L3.76367 15.199C4.54907 15.7921 5.50742 16.111 6.49157 16.1067Z" fill="#34A853"/>
<path d="M6.49186 7.08377C5.55043 7.08939 4.63426 7.38891 3.87131 7.9405C3.10837 8.49208 2.53675 9.26818 2.2363 10.1604C1.93585 11.0526 1.92156 12.0164 2.19544 12.9171C2.46932 13.8179 3.01769 14.6106 3.76396 15.1845L5.77938 13.1691C5.52326 13.0534 5.29904 12.8773 5.12596 12.6558C4.95287 12.4344 4.83608 12.1743 4.78562 11.8978C4.73516 11.6213 4.75253 11.3368 4.83624 11.0685C4.91995 10.8002 5.0675 10.5562 5.26623 10.3575C5.46496 10.1587 5.70893 10.0112 5.97722 9.92748C6.24551 9.84377 6.5301 9.82641 6.80658 9.87687C7.08306 9.92733 7.34317 10.0441 7.56459 10.2172C7.78601 10.3903 7.96214 10.6145 8.07785 10.8706L10.0933 8.8552C9.67026 8.30218 9.12504 7.85451 8.50027 7.54721C7.8755 7.2399 7.18811 7.08129 6.49186 7.08377Z" fill="#FBBC05"/>
</svg>

<svg xmlns="http://www.w3.org/2000/svg" viewBox="0 0 20 20">
  <rect width="100%" height="100%" fill="#fff"/>
  <path fill="#EA4335" d="M12.15 6.8h.49l1.4-1.4.06-.59A6.25 6.25 0 0 0 3.93 7.86a.76.76 0 0 1 .49-.02l2.78-.46s.14-.24.21-.22a3.47 3.47 0 0 1 4.75-.36Z"/>
  <path fill="#4285F4" d="M16.01 7.86a6.27 6.27 0 0 0-1.89-3.04l-1.95 1.95a3.47 3.47 0 0 1 1.28 2.75v.35a1.74 1.74 0 1 1 0 3.47H9.97l-.35.36v2.08l.35.35h3.48A4.52 4.52 0 0 0 16 7.86Z"/>
  <path fill="#34A853" d="M6.5 16.1h3.47v-2.77H6.49c-.25 0-.5-.06-.72-.16l-.48.15-1.4 1.4-.13.48c.79.6 1.75.91 2.73.9Z"/>
  <path fill="#FBBC05" d="M6.5 7.08a4.52 4.52 0 0 0-2.74 8.1l2.02-2.01a1.74 1.74 0 1 1 2.3-2.3l2.01-2.01a4.51 4.51 0 0 0-3.6-1.78Z"/>
</svg>
